pp/magnet.svg

<svg viewBox="0 0 20 20" fill="none" xmlns="http://www.w3.org/2000/svg" height="1em" width="1em">
  <g clip-path="url(#a)">
    <path fill-rule="evenodd" clip-rule="evenodd" d="M7.29286 1.39339C7.68339 1.00286 8.31655 1.00286 8.70708 1.39339L12.2426 4.92892C12.6331 5.31944 12.6331 5.95261 12.2426 6.34313L7.29286 11.2929C6.90234 11.6834 6.90234 12.3166 7.29286 12.7071C7.68339 13.0976 8.31655 13.0976 8.70708 12.7071L13.6568 7.75735C14.0473 7.36682 14.6805 7.36682 15.071 7.75735L18.6066 11.2929C18.9971 11.6834 18.9971 12.3166 18.6066 12.7071L13.6568 17.6568C10.5326 20.781 5.46732 20.781 2.34312 17.6568C-0.781075 14.5326 -0.781077 9.46733 2.34312 6.34313L7.29286 1.39339ZM7.99997 3.51471L3.75733 7.75734C1.41419 10.1005 1.41419 13.8995 3.75734 16.2426C6.10048 18.5858 9.89947 18.5858 12.2426 16.2426L16.4853 12L14.3639 9.87867L10.1213 14.1213C8.94972 15.2929 7.05022 15.2929 5.87865 14.1213C4.70708 12.9497 4.70708 11.0502 5.87865 9.87867L10.1213 5.63603L7.99997 3.51471Z" fill="currentColor"/>
    <path fill-rule="evenodd" clip-rule="evenodd" d="M7.29286 8.46446L5.17154 6.34314L6.58575 4.92892L8.70707 7.05024L7.29286 8.46446Z" fill="currentColor"/>
    <path fill-rule="evenodd" clip-rule="evenodd" d="M13.6568 14.8284L11.5355 12.7071L12.9497 11.2929L15.071 13.4142L13.6568 14.8284Z" fill="currentColor"/>
    <path fill-rule="evenodd" clip-rule="evenodd" d="M14.6286 6.42847C14.1158 6.22336 13.8664 5.64139 14.0715 5.1286L15.4217 1.75314L16.98 2.27258L17.7988 0.567164C18.0379 0.06929 18.6352 -0.140537 19.1331 0.0985035C19.631 0.337543 19.8408 0.93493 19.6018 1.4328L18.02 4.72741L16.5783 4.24685L15.9285 5.87139C15.7233 6.38417 15.1414 6.63359 14.6286 6.42847Z" fill="currentColor"/>
  </g>
  <defs>
    <clipPath id="a">
      <rect width="20" height="20" fill="white"/>
    </clipPath>
  </defs>
</svg>

<svg viewBox="0 0 20 20" fill="none" xmlns="http://www.w3.org/2000/svg" height="1em" width="1em">
  <g clip-path="url(#a)" fill-rule="evenodd" clip-rule="evenodd" fill="currentColor">
    <path d="M7.293 1.393a1 1 0 0 1 1.414 0l3.536 3.536a1 1 0 0 1 0 1.414l-4.95 4.95a1 1 0 1 0 1.414 1.414l4.95-4.95a1 1 0 0 1 1.414 0l3.536 3.536a1 1 0 0 1 0 1.414l-4.95 4.95A8 8 0 1 1 2.343 6.343l4.95-4.95ZM8 3.515 3.757 7.757a6 6 0 1 0 8.486 8.486L16.485 12l-2.121-2.121-4.243 4.242A3 3 0 1 1 5.88 9.88l4.242-4.243L8 3.515Z"/>
    <path d="m7.293 8.464-2.121-2.12 1.414-1.415L8.707 7.05 7.293 8.464Zm6.364 6.364-2.121-2.12 1.414-1.415 2.121 2.121-1.414 1.414Zm.972-8.4a1 1 0 0 1-.557-1.3l1.35-3.375 1.558.52.819-1.706a1 1 0 0 1 1.803.866L18.02 4.727l-1.442-.48-.65 1.624a1 1 0 0 1-1.3.557Z"/>
  </g>
  <defs>
    <clipPath id="a">
      <path fill="#fff" d="M0 0h20v20H0z"/>
    </clipPath>
  </defs>
</svg>
